Obsidian-SemiLight/actions/22s/office-chart-bar-stacked.svg

<svg viewBox="0 0 22 22" xmlns="http://www.w3.org/2000/svg"><path d="m4 3v6 1 5 1 1h-1v1h1v1h1v-1h14v-1h-3v-9h-1-3v9h-2v-10-3-1h-4v14h-1v-1-1-3-1-1-1-3-.0078125-.9921875-2z" fill="#4d4d4d"/></svg>

<svg xmlns="http://www.w3.org/2000/svg" viewBox="0 0 22 22">
  <defs id="defs3051">
    <style type="text/css" id="current-color-scheme">
      .ColorScheme-Text {
        color:#4d4d4d;
      }
      </style>
  </defs>
 <path 
     style="fill:currentColor;fill-opacity:1;stroke:none" 
     d="M 4 3 L 4 9 L 4 10 L 4 15 L 4 16 L 4 17 L 3 17 L 3 18 L 4 18 L 4 19 L 5 19 L 5 18 L 19 18 L 19 17 L 16 17 L 16 8 L 15 8 L 12 8 L 12 17 L 10 17 L 10 7 L 10 4 L 10 3 L 6 3 L 6 17 L 5 17 L 5 16 L 5 15 L 5 12 L 5 11 L 5 10 L 5 9 L 5 6 L 5 5.9921875 L 5 5 L 5 3 L 4 3 z "
	 class="ColorScheme-Text"
     />
</svg>
